X:1
T:Fraternity, 10.10.10.10.12.12
T:Fraternity, 10.10.10.10.12.12
T:William Pierson Merrill, 1908
T:Public Domain Courtesy of the Cyber Hymnal™
C:William Pierson Merrill, 1908
Z:Public Domain
Z:Courtesy of the Cyber Hymnal™
%%score ( 1 2 ) ( 3 4 )
L:1/8
Q:1/4=115
M:2/2
K:Eb
V:1 treble 
V:2 treble 
V:3 bass 
V:4 bass 
V:1
 [EB]4 [EG]2 [B,E]2 | [B,E]4 [B,D]4 | [B,E]2 [DF]2 [EG]2 [E=A]2 | [DB]6 [FB]2 | [Ee]4 [Fd]4 | %5
 [Gc]4 [EG]4 | [DF]2 [DB]2 [EB]2 [E=A]2 | [DB]6 [DB]2 | [Ec]4 [Ec]4 | [=Ec]4 [EG]4 | %10
 [FA]2 [Fc]2 [FB]2 [FA]2 | [EG]6 [EG]2 | [^F=A]4 [DA]4 | [DB]2 [Dd]2 [Ec]2 [EG]2 | [DB]4 =A4 | %15
 [B,G]8 | G4 G2 G2 | A3 A A2 A2 | =A2 A2 A2 A2 | [B,DFB]6 [FB]2 | [Fc]4 [Ad]4 | %21
 [Ge]2 [FB]2 [EA]2 [EG]2 | [EG]2 [B,E]2 [DF]3 E | E8 |] %24
V:2
 x8 | x8 | x8 | x8 | x8 | x8 | x8 | x8 | x8 | x8 | x8 | x8 | x8 | x8 | x4 (D2 C2) | x8 | [B,D]8 | %17
 [CE]8 | [CF]8 | x8 | x8 | x8 | x7 E | E8 |] %24
V:3
 [E,G,]4 [E,B,]2 [E,G,]2 | [F,A,]4 [F,A,]4 | [E,G,]2 [D,B,]2 [E,B,]2 [C,F,]2 | [B,,F,]6 [D,F,]2 | %4
 [C,G,]4 [D,G,]4 | [E,G,]4 [E,C]4 | [F,D]2 [F,B,]2 [F,C]2 F,2 | [B,,F,]6 [B,,F,]2 | %8
 [A,,A,]4 [A,C]4 | [G,C]4 [G,C]4 | [F,C]2 [E,A,]2 [D,A,]2 [B,,B,]2 | [E,B,]6 [E,B,]2 | %12
 [D,C]4 [^F,C]4 | [G,B,]2 [G,B,]2 [C,C]2 [C,C]2 | [D,G,]4 [D,^F,]4 | [G,,G,]8 | G,4 G,2 G,2 | %17
 A,3 A, A,2 A,2 | =A,2 A,2 A,2 A,2 | [D,,D,B,]6 [B,D]2 | [A,D]4 [F,B,]4 | %21
 [E,B,]2 [E,D]2 [E,C]2 [E,B,]2 | [B,,B,]2 [B,,G,]2 [B,,A,]3 [E,G,] | [E,G,]8 |] %24
V:4
 x8 | x8 | x8 | x8 | x8 | x8 | x6 F,2 | x8 | x8 | x8 | x8 | x8 | x8 | x8 | x8 | x8 | G,,8 | %17
 [F,,F,]8 | [E,,E,]8 | x8 | x8 | x8 | x8 | x8 |] %24

